flaticon/delivery/trailer.svg

<svg xmlns="http://www.w3.org/2000/svg" width="32" height="32" viewBox="0 0 24 24">
    <path d="M 23.601562 16.601562 L 20.992188 16.601562 C 21.8125 15.464844 22.285156 14.128906 22.382812 12.734375 C 22.402344 12.695312 22.421875 12.648438 22.441406 12.601562 L 22.441406 12.519531 C 22.441406 12.441406 22.441406 12.320312 22.441406 12.199219 C 22.441406 12 22.398438 11.800781 22.398438 11.601562 C 22.320312 10.800781 22.078125 10 21.71875 9.238281 C 21.714844 9.230469 21.707031 9.21875 21.703125 9.207031 C 21.65625 9.113281 21.609375 9.015625 21.558594 8.921875 C 20.921875 7.71875 19.679688 7 18.320312 7 L 12.398438 7 L 12.398438 6.601562 C 12.398438 5.921875 11.878906 5.398438 11.199219 5.398438 L 8 5.398438 C 7.320312 5.398438 6.800781 5.921875 6.800781 6.601562 L 6.800781 7 L 3.078125 7 C 2.160156 7 1.359375 7.441406 0.960938 8.199219 C 0.320312 9.398438 0 10.71875 0 12.199219 C 0 13.679688 0.320312 15 0.960938 16.199219 C 1.398438 16.921875 2.199219 17.398438 3.078125 17.398438 L 7.652344 17.398438 C 7.828125 18.089844 8.457031 18.601562 9.199219 18.601562 C 9.941406 18.601562 10.570312 18.089844 10.75 17.398438 L 23.199219 17.398438 L 23.199219 18.199219 C 23.199219 18.441406 23.359375 18.601562 23.601562 18.601562 C 23.839844 18.601562 24 18.441406 24 18.199219 L 24 17 C 24 16.761719 23.839844 16.601562 23.601562 16.601562 Z M 21.078125 9.800781 C 21.320312 10.441406 21.519531 11.039062 21.558594 11.679688 C 21.601562 11.839844 21.601562 12.039062 21.601562 12.199219 L 20 12.199219 C 19.761719 12.199219 19.601562 12.039062 19.601562 11.800781 L 19.601562 10.199219 C 19.601562 9.960938 19.761719 9.800781 20 9.800781 Z M 7.601562 6.601562 C 7.601562 6.359375 7.761719 6.199219 8 6.199219 L 11.199219 6.199219 C 11.441406 6.199219 11.601562 6.359375 11.601562 6.601562 L 11.601562 7 L 7.601562 7 Z M 1.679688 15.800781 C 1.464844 15.425781 1.289062 15.023438 1.152344 14.601562 L 12 14.601562 L 12 16.601562 L 10.761719 16.601562 C 10.703125 16.402344 10.609375 16.21875 10.488281 16.054688 C 10.484375 16.046875 10.476562 16.039062 10.472656 16.03125 C 10.464844 16.023438 10.457031 16.015625 10.453125 16.007812 C 10.441406 15.996094 10.433594 15.984375 10.421875 15.972656 C 10.421875 15.96875 10.417969 15.964844 10.414062 15.960938 C 10.378906 15.921875 10.34375 15.882812 10.304688 15.847656 C 10.296875 15.839844 10.289062 15.832031 10.28125 15.824219 C 10.273438 15.816406 10.269531 15.8125 10.261719 15.804688 C 10.25 15.792969 10.234375 15.78125 10.222656 15.769531 C 10.21875 15.769531 10.214844 15.765625 10.210938 15.761719 C 9.976562 15.570312 9.691406 15.441406 9.367188 15.410156 C 9.367188 15.410156 9.363281 15.410156 9.359375 15.40625 C 9.335938 15.40625 9.316406 15.40625 9.292969 15.402344 C 9.289062 15.402344 9.285156 15.402344 9.277344 15.402344 C 9.253906 15.402344 9.226562 15.398438 9.199219 15.398438 C 9.171875 15.398438 9.148438 15.402344 9.121094 15.402344 C 9.117188 15.402344 9.113281 15.402344 9.105469 15.402344 C 9.085938 15.402344 9.0625 15.40625 9.039062 15.40625 C 9.039062 15.410156 9.035156 15.410156 9.035156 15.410156 C 8.347656 15.476562 7.789062 15.96875 7.640625 16.601562 L 3.078125 16.601562 C 2.480469 16.601562 1.960938 16.28125 1.679688 15.800781 Z M 9.199219 17.800781 C 8.761719 17.800781 8.398438 17.441406 8.398438 17 C 8.398438 16.558594 8.761719 16.199219 9.199219 16.199219 C 9.640625 16.199219 10 16.558594 10 17 C 10 17.441406 9.640625 17.800781 9.199219 17.800781 Z M 12.800781 10.601562 C 12.800781 10.359375 12.960938 10.199219 13.199219 10.199219 L 16.398438 10.199219 C 16.640625 10.199219 16.800781 10.359375 16.800781 10.601562 L 16.800781 16.601562 L 12.800781 16.601562 Z M 17.601562 16.601562 L 17.601562 10.601562 C 17.601562 9.921875 17.078125 9.398438 16.398438 9.398438 L 13.199219 9.398438 C 12.519531 9.398438 12 9.921875 12 10.601562 L 12 13.800781 L 0.949219 13.800781 C 0.847656 13.285156 0.800781 12.75 0.800781 12.199219 C 0.800781 10.878906 1.078125 9.640625 1.679688 8.601562 C 1.960938 8.121094 2.480469 7.800781 3.078125 7.800781 L 18.320312 7.800781 C 19.285156 7.800781 20.15625 8.246094 20.699219 9 L 20 9 C 19.320312 9 18.800781 9.519531 18.800781 10.199219 L 18.800781 11.800781 C 18.800781 12.480469 19.320312 13 20 13 L 21.589844 13 C 21.425781 14.3125 20.867188 15.566406 20 16.601562 Z M 17.601562 16.601562"/>
    <path d="M4.398438 9L2.800781 9C2.121094 9 1.601562 9.519531 1.601562 10.199219L1.601562 11.800781C1.601562 12.480469 2.121094 13 2.800781 13L4.398438 13C5.078125 13 5.601562 12.480469 5.601562 11.800781L5.601562 10.199219C5.601562 9.519531 5.078125 9 4.398438 9zM4.800781 11.800781C4.800781 12.039062 4.640625 12.199219 4.398438 12.199219L2.800781 12.199219C2.558594 12.199219 2.398438 12.039062 2.398438 11.800781L2.398438 10.199219C2.398438 9.960938 2.558594 9.800781 2.800781 9.800781L4.398438 9.800781C4.640625 9.800781 4.800781 9.960938 4.800781 10.199219zM9.199219 9L7.601562 9C6.921875 9 6.398438 9.519531 6.398438 10.199219L6.398438 11.800781C6.398438 12.480469 6.921875 13 7.601562 13L9.199219 13C9.878906 13 10.398438 12.480469 10.398438 11.800781L10.398438 10.199219C10.398438 9.519531 9.878906 9 9.199219 9zM9.601562 11.800781C9.601562 12.039062 9.441406 12.199219 9.199219 12.199219L7.601562 12.199219C7.359375 12.199219 7.199219 12.039062 7.199219 11.800781L7.199219 10.199219C7.199219 9.960938 7.359375 9.800781 7.601562 9.800781L9.199219 9.800781C9.441406 9.800781 9.601562 9.960938 9.601562 10.199219zM16 13L15.601562 13C15.359375 13 15.199219 13.160156 15.199219 13.398438 15.199219 13.640625 15.359375 13.800781 15.601562 13.800781L16 13.800781C16.238281 13.800781 16.398438 13.640625 16.398438 13.398438 16.398438 13.160156 16.238281 13 16 13zM16 13"/>
</svg>

<svg xmlns="http://www.w3.org/2000/svg" width="32" height="32" viewBox="0 0 24 24">
    <path d="M23.602 16.602h-2.61a7.481 7.481 0 0 0 1.39-3.868c.02-.039.04-.086.06-.132v-.082-.32c0-.2-.044-.4-.044-.598-.078-.801-.32-1.602-.68-2.364-.003-.008-.011-.02-.015-.031-.047-.094-.094-.191-.144-.285C20.922 7.719 19.679 7 18.32 7h-5.922v-.398c0-.68-.52-1.204-1.199-1.204H8c-.68 0-1.2.524-1.2 1.204V7H3.079C2.16 7 1.36 7.441.961 8.2.32 9.397 0 10.718 0 12.2c0 1.48.32 2.8.96 4a2.49 2.49 0 0 0 2.118 1.198h4.574A1.6 1.6 0 0 0 9.2 18.602c.742 0 1.371-.512 1.551-1.204H23.2v.801c0 .242.16.403.402.403.238 0 .398-.16.398-.403V17c0-.238-.16-.398-.398-.398zM21.078 9.8c.242.64.442 1.238.48 1.879.044.16.044.36.044.52H20c-.238 0-.398-.16-.398-.4v-1.6c0-.24.16-.4.398-.4zM7.602 6.6c0-.242.16-.402.398-.402h3.2c.241 0 .402.16.402.403V7h-4zm-5.922 9.2a6.346 6.346 0 0 1-.528-1.2H12v2h-1.238a1.753 1.753 0 0 0-.274-.546l-.015-.024c-.008-.008-.016-.015-.02-.023-.012-.012-.02-.024-.031-.035 0-.004-.004-.008-.008-.012a1.497 1.497 0 0 0-.133-.137l-.02-.02-.038-.034c-.004 0-.008-.004-.012-.008a1.56 1.56 0 0 0-.844-.352s-.004 0-.008-.004c-.023 0-.043 0-.066-.004h-.016c-.023 0-.05-.004-.078-.004-.027 0-.05.004-.078.004h-.016c-.02 0-.043.004-.066.004 0 .004-.004.004-.004.004a1.582 1.582 0 0 0-1.394 1.192H3.078c-.598 0-1.117-.32-1.398-.801zm7.52 2c-.438 0-.802-.36-.802-.801a.802.802 0 1 1 .8.8zm3.6-7.2c0-.242.16-.402.4-.402h3.198c.243 0 .403.16.403.403v6h-4zm4.802 6v-6c0-.68-.524-1.203-1.204-1.203H13.2c-.68 0-1.199.524-1.199 1.204V13.8H.95a8.28 8.28 0 0 1-.15-1.602c0-1.32.278-2.558.88-3.597.28-.48.8-.801 1.398-.801H18.32c.965 0 1.836.445 2.38 1.199H20c-.68 0-1.2.52-1.2 1.2v1.6c0 .68.52 1.2 1.2 1.2h1.59A6.982 6.982 0 0 1 20 16.602zm0 0"/>
    <path d="M4.398 9H2.801c-.68 0-1.2.52-1.2 1.2v1.6c0 .68.52 1.2 1.2 1.2h1.597c.68 0 1.204-.52 1.204-1.2v-1.6c0-.68-.524-1.2-1.204-1.2zm.403 2.8c0 .24-.16.4-.403.4H2.801c-.242 0-.403-.16-.403-.4v-1.6c0-.24.16-.4.403-.4h1.597c.243 0 .403.16.403.4zm0 0M9.2 9H7.601c-.68 0-1.204.52-1.204 1.2v1.6c0 .68.524 1.2 1.204 1.2h1.597c.68 0 1.2-.52 1.2-1.2v-1.6c0-.68-.52-1.2-1.2-1.2zm.402 2.8c0 .24-.16.4-.403.4H7.602c-.243 0-.403-.16-.403-.4v-1.6c0-.24.16-.4.403-.4h1.597c.242 0 .403.16.403.4zm0 0M16 13h-.398c-.243 0-.403.16-.403.398 0 .243.16.403.403.403H16c.238 0 .398-.16.398-.403 0-.238-.16-.398-.398-.398zm0 0"/>
</svg>
